img/svg/online-school/file-binary.svg

<svg width="24" height="24" viewBox="0 0 24 24" fill="none" xmlns="http://www.w3.org/2000/svg">
<path d="M6.54099 16.3275L6.54101 16.3301C6.54168 16.4623 6.54483 16.5946 6.55045 16.7267L6.57571 17.3211C6.52666 17.029 6.5 16.6983 6.5 16.3275C6.5 15.4746 6.64146 14.8342 6.87216 14.3878C6.63955 14.89 6.541 15.5549 6.54099 16.3275ZM6.88987 18.3032C6.7883 18.1145 6.70313 17.8897 6.63856 17.6271L6.65787 17.613L6.70792 17.8005C6.75529 17.9779 6.81508 18.147 6.88987 18.3032ZM9.93652 15.0304L9.91964 15.0428L9.87172 14.8626C9.82844 14.6997 9.77465 14.5441 9.70853 14.3991C9.79986 14.5783 9.87696 14.7884 9.93652 15.0304ZM10.0246 15.935L10.0026 15.356C10.0496 15.6427 10.075 15.966 10.075 16.3275C10.075 17.1955 9.92893 17.8436 9.69173 18.2913C9.93102 17.7864 10.0325 17.1129 10.0325 16.3275C10.0325 16.1924 10.0293 16.0585 10.0246 15.935ZM14.095 19H14.054V18.609V14.25V13.75H13.5709L13.7102 13.658H14.095V18.6075V19ZM4.23223 1.23223C4.70107 0.763392 5.33696 0.5 6 0.5H18C18.663 0.5 19.2989 0.763392 19.7678 1.23223C20.2366 1.70107 20.5 2.33696 20.5 3V21C20.5 21.663 20.2366 22.2989 19.7678 22.7678C19.2989 23.2366 18.663 23.5 18 23.5H6C5.33696 23.5 4.70107 23.2366 4.23223 22.7678C3.76339 22.2989 3.5 21.663 3.5 21V3C3.5 2.33696 3.76339 1.70107 4.23223 1.23223ZM18 1H6C5.46957 1 4.96086 1.21071 4.58579 1.58579C4.21071 1.96086 4 2.46957 4 3V21C4 21.5304 4.21071 22.0391 4.58579 22.4142C4.96086 22.7893 5.46957 23 6 23H18C18.5304 23 19.0391 22.7893 19.4142 22.4142C19.7893 22.0391 20 21.5304 20 21V3C20 2.46957 19.7893 1.96086 19.4142 1.58579C19.0391 1.21071 18.5304 1 18 1Z" fill="#FBFBFB" stroke="#FBFBFB"/>
</svg>

<svg width="24" height="24" fill="none" xmlns="http://www.w3.org/2000/svg"><path d="M6.541 16.328v.002c0 .132.004.265.01.397l.025.594a6.022 6.022 0 01-.076-.994c0-.852.141-1.493.372-1.94-.232.503-.331 1.168-.331 1.94zm.349 1.975a2.871 2.871 0 01-.251-.676l.019-.014.05.188c.047.177.107.346.182.502zm3.047-3.273l-.017.013-.048-.18a2.933 2.933 0 00-.163-.464c.09.18.168.39.228.631zm.088.905l-.022-.579c.047.287.072.61.072.972 0 .867-.146 1.516-.383 1.963.239-.505.34-1.178.34-1.963 0-.136-.003-.27-.007-.393zM14.095 19h-.041v-5.25h-.483l.14-.092h.384V19zM4.232 1.232A2.5 2.5 0 016 .5h12A2.5 2.5 0 0120.5 3v18a2.5 2.5 0 01-2.5 2.5H6A2.5 2.5 0 013.5 21V3a2.5 2.5 0 01.732-1.768zM18 1H6a2 2 0 00-2 2v18a2 2 0 002 2h12a2 2 0 002-2V3a2 2 0 00-2-2z" fill="#FBFBFB" stroke="#FBFBFB"/></svg>
